X: 7
T: Elzic's Farewell
C: Traditional Appalachian
R: reel
M: 4/4
L: 1/8
K: Ador
|: "Am"e3 e2 c d2 | c3 d cB A2 | a2 ab agef | "G"geae ge d2 |
   "Am"e3 e2 c d2 | c3 d cB A2 | AGAB AGED |1 "Em"EGAB "Am"A2 cd :|2 "Em"EGAB "Am"A2 A2 |
|: "A5" A,3 A,2 B, "C"C2 | "D"D3E DCA,C | DCDE DCA,C | DEDC A,2 "G"G,2 | 
   "A5" A,3 A,2 B, "C"C2 | "D"D3E DCA,C | DEDC A,G,A,C |1 DEDC A,2 A,2 :|2  DEDC "Am"A,2 A,2 ||

